X: 4176
T: The DUBLIN LASSES
%R: reel
B: James Kerr "Merry Melodies" v.4 p.20 #176
Z: 2016 John Chambers <jc:trillian.mit.edu>
M: C|
L: 1/8
K: Em
(dc) |:\
BEEF GBAG | (3(FED) (AD) BGAF |\
GFEF GAB^c |\
[1 d^cdf (3(efg) (d=c) :|\
[2 d^cdf e/e/e e2 ||
|: gfef gbag | fdd^c dfaf |\
[1 gfef gbag | (fd) (3(d^cd) e2(ef) :|\
[2 bgaf gfed | (BA) (3(Bcd) e2 |]

%%sep 1 1 500
%%sep 1 1 500

